dist/img/common/logo.svg

<svg width="170" height="59" viewBox="0 0 170 59" fill="none" xmlns="http://www.w3.org/2000/svg">
<g clip-path="url(#clip0)">
<path d="M66.8721 19.0409V0" stroke="#BB653B" stroke-width="10"/>
<path d="M67.9463 1.34082L0.268555 1.34084" stroke="#BB653B" stroke-width="10"/>
<path d="M1.34277 0V59" stroke="#BB653B" stroke-width="10"/>
<path d="M0 57.6592H67.9463" stroke="#BB653B" stroke-width="10"/>
<path d="M66.6035 58.7317V48.0044" stroke="#BB653B" stroke-width="10"/>
<path d="M13.3894 41.0318H11.8586V27.539H18.3288C19.7032 27.539 20.8053 27.9196 21.6354 28.6804C22.4654 29.4278 22.8804 30.4536 22.8804 31.7581C22.8804 33.4431 22.1797 34.5911 20.7781 35.2026C20.3835 35.3793 19.9957 35.5083 19.6147 35.5898L23.1662 41.0318H21.3496L18.0839 35.8548H13.3894V41.0318ZM13.3894 34.4077H18.0635C19.5059 34.4077 20.4992 33.9593 21.0435 33.0625C21.2476 32.7227 21.3496 32.288 21.3496 31.7581C21.3496 30.902 21.0571 30.2294 20.472 29.7403C19.8869 29.2374 19.1113 28.9861 18.1452 28.9861H13.3894V34.4077ZM31.3294 29.0065V33.5313H38.8406V35.0192H31.3294V39.5643H39.7386V41.0318H29.7986V27.539H39.7386V29.0065H31.3294ZM57.8306 27.539V35.223C57.8306 37.0166 57.2932 38.4637 56.2182 39.5643C55.1568 40.6512 53.7756 41.1948 52.0748 41.1948C50.3874 41.1948 49.0065 40.6512 47.9314 39.5643C46.87 38.4637 46.3394 37.0166 46.3394 35.223V27.539H47.8702V35.2637C47.8702 36.7176 48.3055 37.8522 49.1765 38.6675C49.9249 39.3605 50.891 39.707 52.0748 39.707C53.2586 39.707 54.2316 39.3605 54.9935 38.6675C55.8645 37.8659 56.2998 36.7312 56.2998 35.2637V27.539H57.8306ZM74.8529 29.0065H70.138V41.0318H68.6072V29.0065H63.8923V27.539H74.8529V29.0065ZM86.5096 27.376C88.5235 27.376 90.1768 28.0486 91.4694 29.3938C92.7349 30.6982 93.3676 32.3288 93.3676 34.2854C93.3676 36.2421 92.7349 37.8726 91.4694 39.177C90.1768 40.5222 88.5235 41.1948 86.5096 41.1948C84.4959 41.1948 82.8426 40.5222 81.5498 39.177C80.2843 37.8726 79.6516 36.2421 79.6516 34.2854C79.6516 32.3288 80.2843 30.6982 81.5498 29.3938C82.8426 28.0486 84.4959 27.376 86.5096 27.376ZM86.5096 39.707C88.1153 39.707 89.4149 39.1837 90.408 38.1376C91.3606 37.1322 91.8368 35.8481 91.8368 34.2854C91.8368 32.7227 91.3606 31.4387 90.408 30.4332C89.4149 29.3871 88.1153 28.8638 86.5096 28.8638C84.9041 28.8638 83.6046 29.3871 82.6111 30.4332C81.6588 31.4387 81.1824 32.7227 81.1824 34.2854C81.1824 35.8481 81.6588 37.1322 82.6111 38.1376C83.6046 39.1837 84.9041 39.707 86.5096 39.707ZM110.968 27.539L105.497 41.0318H103.742L98.2721 27.539H99.9458L104.62 39.2993L109.294 27.539H110.968ZM127.887 41.0318H126.193L124.54 37.1185H117.845L116.192 41.0318H114.498L120.233 27.539H122.152L127.887 41.0318ZM123.948 35.7121L121.193 29.1288L118.437 35.7121H123.948Z" fill="#4A413E"/>
<path d="M15.1898 17.2012V22.5273H14.4889L11.1936 18.0299V22.5273H10.5894V17.2012H11.2903L14.5856 21.6825V17.2012H15.1898ZM23.4513 22.5273H22.7826L22.13 20.9825H19.4874L18.8348 22.5273H18.166L20.43 17.2012H21.1874L23.4513 22.5273ZM21.8964 20.4274L20.8087 17.8287L19.721 20.4274H21.8964ZM29.7397 17.7804H27.8786V22.5273H27.2743V17.7804H25.4133V17.2012H29.7397V17.7804ZM36.9898 22.5273H36.3211L35.6685 20.9825H33.0259L32.3733 22.5273H31.7045L33.9685 17.2012H34.7259L36.9898 22.5273ZM35.4349 20.4274L34.3472 17.8287L33.2595 20.4274H35.4349ZM40.5679 17.2012V21.948H43.4764V22.5273H39.9636V17.2012H40.5679ZM47.16 22.5273H46.5558V17.2012H47.16V22.5273ZM55.4207 22.5273H54.752L54.0994 20.9825H51.4568L50.8042 22.5273H50.1354L52.3994 17.2012H53.1568L55.4207 22.5273ZM53.8658 20.4274L52.7781 17.8287L51.6904 20.4274H53.8658Z" fill="#BB653B"/>
</g>
<defs>
<clipPath id="clip0">
<rect width="170" height="59" fill="white"/>
</clipPath>
</defs>
</svg>

<svg width="133" height="59" viewBox="0 0 133 59" fill="none" xmlns="http://www.w3.org/2000/svg"><g clip-path="url(#clip0)"><path d="M66.872 19.04V0m1.074 1.34H.27M1.343 0v59M0 57.66h67.946m-1.343 1.072V48.004" stroke="#BB653B" stroke-width="10"/><path d="M13.39 41.032h-1.531V27.539h6.47c1.374 0 2.476.38 3.306 1.141.83.748 1.245 1.774 1.245 3.078 0 1.685-.7 2.833-2.102 3.445a5.837 5.837 0 01-1.163.387l3.551 5.442H21.35l-3.266-5.177h-4.695v5.177zm0-6.624h4.674c1.442 0 2.435-.449 2.98-1.346.204-.34.306-.774.306-1.304 0-.856-.293-1.529-.878-2.018-.585-.503-1.36-.754-2.327-.754H13.39v5.422zm17.94-5.402v4.525h7.51v1.488h-7.51v4.545h8.409v1.468h-9.94V27.539h9.94v1.467h-8.41zm26.5-1.467v7.684c0 1.794-.537 3.24-1.612 4.341-1.061 1.087-2.442 1.63-4.143 1.63-1.688 0-3.069-.543-4.144-1.63-1.061-1.1-1.592-2.547-1.592-4.341v-7.684h1.531v7.725c0 1.454.436 2.588 1.306 3.403.749.694 1.715 1.04 2.899 1.04s2.157-.346 2.918-1.04c.871-.801 1.307-1.936 1.307-3.403v-7.725h1.53zm17.023 1.467h-4.715v12.026h-1.53V29.007h-4.716v-1.468h10.96v1.467zm11.657-1.63c2.013 0 3.667.673 4.96 2.018 1.265 1.304 1.898 2.935 1.898 4.891 0 1.957-.633 3.588-1.899 4.892-1.292 1.345-2.945 2.018-4.96 2.018-2.013 0-3.666-.673-4.96-2.018-1.265-1.304-1.897-2.935-1.897-4.892 0-1.956.632-3.587 1.898-4.891 1.293-1.345 2.946-2.018 4.96-2.018zm0 12.331c1.605 0 2.905-.523 3.898-1.57.953-1.005 1.429-2.289 1.429-3.852 0-1.562-.476-2.846-1.429-3.852-.993-1.046-2.293-1.57-3.898-1.57-1.606 0-2.905.524-3.899 1.57-.952 1.006-1.429 2.29-1.429 3.852 0 1.563.477 2.847 1.43 3.853.993 1.046 2.292 1.569 3.898 1.569zm24.458-12.168l-5.471 13.493h-1.755l-5.47-13.493h1.674l4.674 11.76 4.674-11.76h1.674zm16.919 13.493h-1.694l-1.653-3.913h-6.695l-1.653 3.913h-1.694l5.735-13.493h1.919l5.735 13.493zm-3.939-5.32l-2.755-6.583-2.756 6.583h5.511z" fill="#4A413E"/><path d="M15.19 17.201v5.326h-.701l-3.295-4.497v4.497h-.605v-5.326h.701l3.296 4.482V17.2h.604zm8.261 5.326h-.668l-.653-1.544h-2.643l-.652 1.544h-.669l2.264-5.326h.757l2.264 5.326zm-1.555-2.1L20.81 17.83l-1.088 2.598h2.175zm7.844-2.647h-1.861v4.747h-.605V17.78h-1.86v-.579h4.326v.58zm7.25 4.747h-.669l-.652-1.544h-2.643l-.653 1.544h-.668l2.264-5.326h.757l2.264 5.326zm-1.555-2.1l-1.088-2.598-1.087 2.598h2.175zm5.133-3.226v4.747h2.908v.58h-3.512V17.2h.604zm6.592 5.326h-.604v-5.326h.604v5.326zm8.26 0h-.668l-.653-1.544h-2.642l-.653 1.544h-.669l2.264-5.326h.758l2.264 5.326zm-1.554-2.1l-1.088-2.598-1.088 2.598h2.176z" fill="#BB653B"/></g><defs><clipPath id="clip0"><path fill="#fff" d="M0 0h133v59H0z"/></clipPath></defs></svg>
